X: 30513
T: SOLDIER'S BRIDE
C:
%R: reel
B: Elias Howe "The Musician's Companion" Part 3 1844 p.51 #3
S: http://imslp.org/wiki/The_Musician's_Companion_(Howe,_Elias)
S: https://archive.org/stream/firstthirdpartof03howe/#page/66/mode/1up
Z: 2015 John Chambers <jc:trillian.mit.edu>
M: 2/4
L: 1/16
K: D
% - - - - - - - - - - - - - - - - - - - - - - - - -
(fg) |\
adde fBBc | dFFG A2gf | fdgf aaef | gBdf e2fg |\
bbaf agef | gefd edBG | edBc FBdf | d2f2d2 H:|
|: A2 |\
GABc dcdf | eAfc dfag | fgfe eddB | AFdF EGFE |\
EDEF ABAF | EDEF AFAd | fdec d2cd | B2B2 BAGA |
d2DF AFdc | B2B2 BAFA | d2DF Adfd | edef dcde |\
egfd edBc | dfdB GFED | AFGA Bcde | f2d2d2 :|
% - - - - - - - - - - - - - - - - - - - - - - - - -


